X: 1024
T:John Ryan's Polka (A11)
N: page A11
N: heptatonic
N: matches 319
R: polka
M:4/4
L:1/8
K:D
"D"f2 d2 d2 ef|"G"g2 f2 "A"e2 de|"D"f2 d2 "A7"A2 d2|\
"D"fdfd a3g| f2 d2 d2 ef|"G"g2 f2 "A"e2 de|
"G"f2 d2 "A" ed c2|[1 "D"d2 d3e:|[2"D"d4 d4|: "D"Ld2 Ld2 "Bm"BcdB|"D"A2 F2 A2 F2|
Ld2 Ld2 "Bm"BcdB|"D"A2 F2 "A"E2 D2| "D" Ld2 Ld2 "Bm" BcdB|\
"D"A2 F2 "A"A2 de|"D"f2 d2 "A" ed c2|"D" d4 d4:|
